X:1
T:Morrison's Ji:
L:1/8
M:6/8
I:linebreak $
K:D
V:1 treble nm="Voice" snm="Voice"
V:1
 E2- E2 BE(B | E)BE (!arpeggio!A2 F)D | dc(B (A2) F2) ||$ [E,A,]4 E,2 | G,2 G, F,(G,(A,) | %5
 (D)A,)G, F, E,2 ||$ (3:2:2B e2 e2 ((=fe-)e) | (3gee =fed =F4 | =fag eed |$ _B2 e2 e2 || | %11
 aee f e2 | g((fe) d2) A | ((B2 A2)) ((F E2)) |$ (3Be(e f2) e2 | | B e2 e fee | faf def |$ %18
 g3- g2 e4 | d2 e(f g2) | (ed=c) d2 A | (BA)G F2 E2 || %22
